lib/svgs/star.svg

<svg xmlns="http://www.w3.org/2000/svg" viewBox="0 0 20 20">
    <path fill="#000" fill-rule="evenodd" d="M5.42661296,17.24775 C5.30161296,17.24775 5.17861296,17.20975 5.07361296,17.13375 C4.88861296,16.99975 4.79661296,16.77275 4.83461296,16.54675 L5.65561296,11.76475 L2.18161296,8.37875 C2.01761296,8.21875 1.95861296,7.98075 2.02961296,7.76375 C2.09961296,7.54575 2.28761296,7.38775 2.51361296,7.35475 L7.31461296,6.65775 L9.46161296,2.30675 C9.66361296,1.89775 10.335613,1.89775 10.537613,2.30675 L12.684613,6.65775 L17.486613,7.35475 C17.712613,7.38775 17.899613,7.54575 17.970613,7.76375 C18.040613,7.98075 17.982613,8.21875 17.818613,8.37875 L14.344613,11.76475 L15.164613,16.54675 C15.202613,16.77275 15.110613,16.99975 14.925613,17.13375 C14.741613,17.26975 14.496613,17.28575 14.293613,17.17975 L9.99961296,14.92175 L5.70561296,17.17975 C5.61761296,17.22575 5.52161296,17.24775 5.42661296,17.24775 L5.42661296,17.24775 L5.42661296,17.24775 Z M3.88961296,8.36775 L6.71861296,11.12575 C6.85961296,11.26375 6.92461296,11.46275 6.89061296,11.65775 L6.22261296,15.55175 L9.72061296,13.71275 C9.89561296,13.62075 10.104613,13.62075 10.279613,13.71275 L13.776613,15.55175 L13.108613,11.65775 C13.075613,11.46275 13.139613,11.26375 13.280613,11.12575 L16.110613,8.36775 L12.200613,7.79975 C12.004613,7.77175 11.835613,7.64875 11.748613,7.47175 L9.99961296,3.92875 L8.25161296,7.47175 C8.16361296,7.64875 7.99461296,7.77175 7.79961296,7.79975 L3.88961296,8.36775 L3.88961296,8.36775 L3.88961296,8.36775 Z"/>
</svg>

<svg xmlns="http://www.w3.org/2000/svg" viewBox="0 0 20 20">
    <path fill="#000" fill-rule="evenodd" d="M5.427 17.248a.6.6 0 0 1-.592-.701l.82-4.782-3.473-3.386a.599.599 0 0 1 .332-1.024l4.8-.697 2.148-4.351c.202-.41.874-.41 1.076 0l2.147 4.35 4.802.698a.6.6 0 0 1 .332 1.024l-3.474 3.386.82 4.782a.6.6 0 0 1-.871.633L10 14.922 5.706 17.18a.602.602 0 0 1-.28.068M3.89 8.368l2.829 2.758a.6.6 0 0 1 .172.532l-.668 3.894 3.498-1.84a.6.6 0 0 1 .559 0l3.497 1.84-.668-3.894a.603.603 0 0 1 .172-.532l2.83-2.758L12.2 7.8a.598.598 0 0 1-.452-.328l-1.75-3.543-1.747 3.543A.601.601 0 0 1 7.8 7.8l-3.91.568"/>
</svg>
